;FLAVOR:Marlin
;TIME:1472
;Filament used: 1.23728m
;Layer height: 0.28
;MINX:82.525
;MINY:82.547
;MINZ:0.28
;MAXX:152.475
;MAXY:152.453
;MAXZ:14.84
;Generated with Cura_SteamEngine 4.6.2
M140 S60
M105
M190 S60
M104 S200
M105
M109 S200
M82 ;absolute extrusion mode
; Ender 3 Custom Start G-code
G92 E0 ; Reset Extruder
G28 ; Home all axes
G1 Z2.0 F3000 ; Move Z Axis up little to prevent scratching of Heat Bed
G1 X0.1 Y20 Z0.3 F5000.0 ; Move to start position
G1 X0.1 Y200.0 Z0.3 F1500.0 E15 ; Draw the first line
G1 X0.4 Y200.0 Z0.3 F5000.0 ; Move to side a little
G1 X0.4 Y20 Z0.3 F1500.0 E30 ; Draw the second line
G92 E0 ; Reset Extruder
G1 Z2.0 F3000 ; Move Z Axis up little to prevent scratching of Heat Bed
G1 X5 Y20 Z0.3 F5000.0 ; Move over to prevent blob squish
G92 E0
G92 E0
G1 F1500 E-6.5
;LAYER_COUNT:53
;LAYER:0
M107
G0 F6000 X119.021 Y83.356 Z0.28
;TYPE:SKIRT
G1 F1500 E0
G1 F1200 X119.955 Y83.412 E0.04357
G1 X121.325 Y83.559 E0.10773
G1 X122.711 Y83.735 E0.17278
G1 X123.3 Y83.818 E0.20048
G1 X124.214 Y83.989 E0.24378
G1 X125.526 Y84.3 E0.30656
G1 X126.918 Y84.659 E0.3735
G1 X127.477 Y84.811 E0.40048
G1 X128.358 Y85.094 E0.44357
G1 X129.592 Y85.556 E0.50492
G1 X131.02 Y86.122 E0.57645
G1 X131.491 Y86.317 E0.60018
G1 X132.312 Y86.7 E0.64237
G1 X133.55 Y87.35 E0.70748
G1 X134.771 Y88.022 E0.77237
G1 X135.29 Y88.317 E0.80017
G1 X136.074 Y88.811 E0.84332
G1 X137.194 Y89.593 E0.90693
G1 X138.326 Y90.417 E0.97212
G1 X138.816 Y90.784 E1.00063
G1 X139.532 Y91.373 E1.0438
G1 X140.503 Y92.252 E1.10479
G1 X141.607 Y93.289 E1.17532
G1 X141.994 Y93.664 E1.20041
G1 X142.618 Y94.325 E1.24274
G1 X143.511 Y95.362 E1.30646
G1 X144.398 Y96.437 E1.37136
G1 X144.779 Y96.911 E1.39968
G1 X145.326 Y97.659 E1.44283
G1 X146.102 Y98.831 E1.50828
G1 X146.834 Y99.989 E1.57207
G1 X147.154 Y100.51 E1.60054
G1 X147.597 Y101.309 E1.64308
G1 X148.183 Y102.492 E1.70455
G1 X148.816 Y103.841 E1.77394
G1 X149.047 Y104.351 E1.80001
G1 X149.39 Y105.209 E1.84304
G1 X149.826 Y106.468 E1.90508
G1 X150.275 Y107.854 E1.97292
G1 X150.447 Y108.412 E2.00011
G1 X150.678 Y109.303 E2.04297
G1 X150.957 Y110.627 E2.10597
G1 X151.231 Y112.062 E2.174
G1 X151.324 Y112.589 E2.19892
G1 X151.444 Y113.517 E2.24249
G1 X151.557 Y114.903 E2.30724
G1 X151.642 Y116.278 E2.37139
G1 X151.672 Y116.881 E2.3995
G1 X151.676 Y117.826 E2.4435
G1 X151.618 Y119.117 E2.50368
G1 X151.524 Y120.609 E2.57329
G1 X151.479 Y121.184 E2.60015
G1 X151.367 Y122.093 E2.64279
G1 X151.141 Y123.408 E2.70492
G1 X150.867 Y124.839 E2.77277
G1 X150.754 Y125.392 E2.79905
G1 X150.524 Y126.304 E2.84284
G1 X150.147 Y127.542 E2.90311
G1 X149.702 Y128.91 E2.97009
G1 X149.509 Y129.481 E2.99816
G1 X149.158 Y130.377 E3.04296
G1 X148.603 Y131.615 E3.10614
G1 X147.996 Y132.901 E3.17236
G1 X147.742 Y133.422 E3.19935
G1 X147.296 Y134.241 E3.24277
G1 X146.618 Y135.354 E3.30345
G1 X145.827 Y136.6 E3.37218
G1 X145.507 Y137.088 E3.39935
G1 X144.97 Y137.832 E3.44208
G1 X144.111 Y138.912 E3.50633
G1 X143.186 Y140.029 E3.57386
G1 X142.837 Y140.439 E3.59893
G1 X142.201 Y141.12 E3.64232
G1 X141.244 Y142.053 E3.70456
G1 X140.178 Y143.052 E3.77259
G1 X139.769 Y143.426 E3.79839
G1 X139.048 Y144.027 E3.8421
G1 X137.949 Y144.858 E3.90626
G1 X136.819 Y145.677 E3.97124
G1 X136.332 Y146.021 E3.999
G1 X135.544 Y146.525 E4.04256
G1 X134.401 Y147.182 E4.10395
G1 X133.147 Y147.871 E4.17057
G1 X132.626 Y148.149 E4.19807
G1 X131.763 Y148.559 E4.24256
G1 X130.52 Y149.077 E4.30526
G1 X129.18 Y149.606 E4.37235
G1 X128.646 Y149.809 E4.39895
G1 X127.754 Y150.102 E4.44267
G1 X126.48 Y150.455 E4.50422
G1 X125.13 Y150.8 E4.56911
G1 X124.513 Y150.95 E4.59867
G1 X123.581 Y151.131 E4.64288
G1 X122.269 Y151.321 E4.70461
G1 X120.896 Y151.494 E4.76905
G1 X120.251 Y151.566 E4.79927
G1 X119.333 Y151.627 E4.84211
G1 X117.975 Y151.653 E4.90536
G1 X116.559 Y151.652 E4.97129
G1 X115.979 Y151.644 E4.9983
G1 X115.045 Y151.588 E5.04187
G1 X113.675 Y151.441 E5.10603
G1 X112.289 Y151.265 E5.17108
G1 X111.7 Y151.182 E5.19878
G1 X110.786 Y151.011 E5.24208
G1 X109.474 Y150.7 E5.30487
G1 X108.082 Y150.341 E5.3718
G1 X107.523 Y150.189 E5.39878
G1 X106.642 Y149.906 E5.44187
G1 X105.408 Y149.444 E5.50322
G1 X103.977 Y148.877 E5.57489
G1 X103.504 Y148.681 E5.59873
G1 X102.686 Y148.298 E5.64079
G1 X101.45 Y147.65 E5.70578
G1 X100.229 Y146.978 E5.77067
G1 X99.71 Y146.683 E5.79847
G1 X98.926 Y146.189 E5.84162
G1 X97.806 Y145.407 E5.90523
G1 X96.674 Y144.583 E5.97042
G1 X96.184 Y144.216 E5.99893
G1 X95.468 Y143.627 E6.0421
G1 X94.497 Y142.748 E6.10309
G1 X93.392 Y141.711 E6.17365
G1 X93.003 Y141.334 E6.19888
G1 X92.379 Y140.672 E6.24124
G1 X91.489 Y139.638 E6.30476
G1 X90.602 Y138.563 E6.36966
G1 X90.221 Y138.089 E6.39798
G1 X89.674 Y137.341 E6.44113
G1 X88.898 Y136.169 E6.50658
G1 X88.164 Y135.009 E6.5705
G1 X87.843 Y134.486 E6.59907
G1 X87.402 Y133.689 E6.64149
G1 X86.817 Y132.508 E6.70286
G1 X86.184 Y131.161 E6.77216
G1 X85.952 Y130.649 E6.79833
G1 X85.608 Y129.787 E6.84155
G1 X85.174 Y128.532 E6.90338
G1 X84.725 Y127.147 E6.97118
G1 X84.552 Y126.586 E6.99851
G1 X84.32 Y125.691 E7.04157
G1 X84.043 Y124.373 E7.10428
G1 X83.768 Y122.931 E7.17263
G1 X83.675 Y122.402 E7.19764
G1 X83.556 Y121.482 E7.24084
G1 X83.443 Y120.097 E7.30555
G1 X83.358 Y118.722 E7.36969
G1 X83.328 Y118.119 E7.39781
G1 X83.325 Y117.171 E7.44195
G1 X83.383 Y115.87 E7.50259
G1 X83.476 Y114.391 E7.5716
G1 X83.521 Y113.816 E7.59845
G1 X83.634 Y112.906 E7.64115
G1 X83.862 Y111.573 E7.70412
G1 X84.133 Y110.161 E7.77107
G1 X84.246 Y109.608 E7.79735
G1 X84.478 Y108.689 E7.84149
G1 X84.877 Y107.382 E7.90512
G1 X85.298 Y106.09 E7.96839
G1 X85.491 Y105.519 E7.99646
G1 X85.842 Y104.623 E8.04127
G1 X86.397 Y103.385 E8.10444
G1 X87.004 Y102.099 E8.17066
G1 X87.258 Y101.578 E8.19765
G1 X87.706 Y100.756 E8.24124
G1 X88.398 Y99.621 E8.30314
G1 X89.173 Y98.4 E8.37048
G1 X89.493 Y97.912 E8.39765
G1 X90.029 Y97.17 E8.44028
G1 X90.893 Y96.083 E8.50493
G1 X91.814 Y94.971 E8.57216
G1 X92.163 Y94.561 E8.59724
G1 X92.799 Y93.88 E8.64062
G1 X93.76 Y92.944 E8.70309
G1 X94.822 Y91.948 E8.77089
G1 X95.231 Y91.574 E8.79669
G1 X95.952 Y90.973 E8.8404
G1 X97.051 Y90.142 E8.90456
G1 X98.181 Y89.323 E8.96954
G1 X98.668 Y88.979 E8.9973
G1 X99.453 Y88.476 E9.04072
G1 X100.611 Y87.811 E9.1029
G1 X101.853 Y87.129 E9.16888
G1 X102.374 Y86.851 E9.19637
G1 X103.237 Y86.441 E9.24086
G1 X104.48 Y85.923 E9.30357
G1 X105.82 Y85.394 E9.37065
G1 X106.354 Y85.191 E9.39725
G1 X107.246 Y84.898 E9.44097
G1 X108.52 Y84.545 E9.50253
G1 X109.87 Y84.2 E9.56741
G1 X110.487 Y84.05 E9.59698
G1 X111.419 Y83.869 E9.64118
G1 X112.731 Y83.679 E9.70291
G1 X114.104 Y83.506 E9.76735
G1 X114.749 Y83.434 E9.79757
G1 X115.667 Y83.373 E9.84041
G1 X117.025 Y83.347 E9.90366
G1 X118.441 Y83.348 E9.96959
G1 X119.021 Y83.356 E9.9966
G0 F6000 X119.026 Y82.956
G1 F1200 X119.997 Y83.014 E10.0419
G1 X121.375 Y83.162 E10.10643
G1 X122.767 Y83.339 E10.17177
G1 X123.356 Y83.422 E10.19947
G1 X124.305 Y83.6 E10.24443
G1 X125.626 Y83.913 E10.30764
G1 X127.023 Y84.273 E10.37482
G1 X127.582 Y84.425 E10.40179
G1 X128.498 Y84.72 E10.4466
G1 X129.739 Y85.184 E10.5083
G1 X131.173 Y85.752 E10.58012
G1 X131.644 Y85.947 E10.60385
G1 X132.497 Y86.346 E10.6477
G1 X133.743 Y86.999 E10.71321
G1 X134.969 Y87.675 E10.7784
G1 X135.488 Y87.97 E10.8062
G1 X136.303 Y88.483 E10.85104
G1 X137.43 Y89.27 E10.91504
G1 X138.565 Y90.097 E10.98044
G1 X139.055 Y90.464 E11.00894
G1 X139.799 Y91.076 E11.0538
G1 X140.777 Y91.96 E11.11519
G1 X141.885 Y93.002 E11.18601
G1 X142.272 Y93.377 E11.2111
G1 X142.921 Y94.063 E11.25508
G1 X143.819 Y95.107 E11.3192
G1 X144.71 Y96.186 E11.38436
G1 X145.091 Y96.66 E11.41268
G1 X145.66 Y97.438 E11.45756
G1 X146.44 Y98.617 E11.52338
G1 X147.175 Y99.779 E11.58741
G1 X147.495 Y100.3 E11.61588
G1 X147.955 Y101.131 E11.6601
G1 X148.545 Y102.321 E11.72195
G1 X149.181 Y103.676 E11.79165
G1 X149.412 Y104.186 E11.81772
G1 X149.768 Y105.077 E11.8624
G1 X150.206 Y106.344 E11.92482
G1 X150.658 Y107.737 E11.99302
G1 X150.83 Y108.295 E12.0202
G1 X151.07 Y109.22 E12.0647
G1 X151.35 Y110.552 E12.12808
G1 X151.625 Y111.993 E12.19639
G1 X151.718 Y112.52 E12.22131
G1 X151.843 Y113.484 E12.26657
G1 X151.956 Y114.878 E12.3317
G1 X152.042 Y116.258 E12.39608
G1 X152.072 Y116.861 E12.42419
G1 X152.075 Y117.843 E12.46992
G1 X152.017 Y119.142 E12.53047
G1 X151.923 Y120.64 E12.60036
G1 X151.878 Y121.215 E12.62721
G1 X151.761 Y122.16 E12.67155
G1 X151.534 Y123.483 E12.73406
G1 X151.259 Y124.919 E12.80214
G1 X151.146 Y125.472 E12.82842
G1 X150.907 Y126.42 E12.87394
G1 X150.527 Y127.666 E12.9346
G1 X150.081 Y129.038 E13.00178
G1 X149.888 Y129.609 E13.02984
G1 X149.523 Y130.54 E13.07641
G1 X148.965 Y131.785 E13.13994
G1 X148.356 Y133.076 E13.2064
G1 X148.102 Y133.597 E13.23339
G1 X147.638 Y134.448 E13.27853
G1 X146.956 Y135.568 E13.33959
G1 X146.161 Y136.82 E13.40865
G1 X145.841 Y137.308 E13.43582
G1 X145.283 Y138.08 E13.48017
G1 X144.419 Y139.167 E13.54483
G1 X143.491 Y140.288 E13.61259
G1 X143.142 Y140.698 E13.63766
G1 X142.48 Y141.406 E13.6828
G1 X141.518 Y142.344 E13.74536
G1 X140.448 Y143.348 E13.81369
G1 X140.039 Y143.722 E13.83949
G1 X139.29 Y144.346 E13.88489
G1 X138.184 Y145.182 E13.94944
G1 X137.05 Y146.004 E14.01466
G1 X136.563 Y146.348 E14.04242
G1 X135.744 Y146.872 E14.0877
G1 X134.593 Y147.533 E14.1495
G1 X133.335 Y148.224 E14.21634
G1 X132.814 Y148.502 E14.24383
G1 X131.918 Y148.927 E14.29001
G1 X130.668 Y149.449 E14.35309
G1 X129.323 Y149.98 E14.42042
G1 X128.789 Y150.183 E14.44702
G1 X127.861 Y150.488 E14.49251
G1 X126.579 Y150.842 E14.55444
G1 X125.224 Y151.189 E14.61957
G1 X124.607 Y151.339 E14.64913
G1 X123.639 Y151.527 E14.69505
G1 X122.32 Y151.718 E14.75711
G1 X120.94 Y151.892 E14.82188
G1 X120.295 Y151.964 E14.8521
G1 X119.341 Y152.027 E14.89662
G1 X117.975 Y152.053 E14.96023
G1 X116.554 Y152.052 E15.0264
G1 X115.974 Y152.044 E15.05341
G1 X115.003 Y151.986 E15.09871
G1 X113.625 Y151.838 E15.16324
G1 X112.233 Y151.661 E15.22858
G1 X111.644 Y151.578 E15.25628
G1 X110.695 Y151.4 E15.30124
G1 X109.374 Y151.087 E15.36445
G1 X107.977 Y150.727 E15.43163
G1 X107.418 Y150.575 E15.4586
G1 X106.502 Y150.28 E15.50341
G1 X105.261 Y149.816 E15.5651
G1 X103.824 Y149.247 E15.63707
G1 X103.351 Y149.051 E15.66091
G1 X102.5 Y148.653 E15.70466
G1 X101.257 Y148.001 E15.77002
G1 X100.031 Y147.325 E15.83521
G1 X99.512 Y147.03 E15.86301
G1 X98.697 Y146.517 E15.90785
G1 X97.57 Y145.73 E15.97185
G1 X96.435 Y144.903 E16.03725
G1 X95.945 Y144.536 E16.06575
G1 X95.201 Y143.924 E16.11061
G1 X94.223 Y143.04 E16.172
G1 X93.114 Y141.998 E16.24285
G1 X92.725 Y141.621 E16.26808
G1 X92.076 Y140.933 E16.31212
G1 X91.181 Y139.893 E16.37601
G1 X90.29 Y138.814 E16.44117
G1 X89.909 Y138.34 E16.46949
G1 X89.34 Y137.562 E16.51437
G1 X88.56 Y136.383 E16.58019
G1 X87.823 Y135.218 E16.64438
G1 X87.502 Y134.695 E16.67296
G1 X87.044 Y133.867 E16.71702
G1 X86.455 Y132.679 E16.77876
G1 X85.82 Y131.326 E16.84836
G1 X85.588 Y130.814 E16.87453
G1 X85.23 Y129.918 E16.91946
G1 X84.794 Y128.656 E16.98163
G1 X84.343 Y127.265 E17.04972
G1 X84.17 Y126.704 E17.07706
G1 X83.929 Y125.774 E17.12179
G1 X83.65 Y124.448 E17.18489
G1 X83.374 Y123 E17.25353
G1 X83.281 Y122.471 E17.27854
G1 X83.158 Y121.516 E17.32338
G1 X83.044 Y120.122 E17.3885
G1 X82.958 Y118.742 E17.45289
G1 X82.928 Y118.139 E17.481
G1 X82.925 Y117.153 E17.52691
G1 X82.983 Y115.845 E17.58788
G1 X83.077 Y114.36 E17.65716
G1 X83.122 Y113.785 E17.68402
G1 X83.239 Y112.839 E17.72841
G1 X83.469 Y111.498 E17.79176
G1 X83.741 Y110.081 E17.85895
G1 X83.854 Y109.528 E17.88523
G1 X84.095 Y108.573 E17.93109
G1 X84.496 Y107.259 E17.99506
G1 X84.919 Y105.962 E18.05859
G1 X85.112 Y105.391 E18.08665
G1 X85.477 Y104.46 E18.13322
G1 X86.035 Y103.215 E18.19674
G1 X86.644 Y101.924 E18.26321
G1 X86.898 Y101.403 E18.2902
G1 X87.364 Y100.549 E18.3355
G1 X88.06 Y99.406 E18.39782
G1 X88.839 Y98.18 E18.46545
G1 X89.159 Y97.692 E18.49263
G1 X89.715 Y96.922 E18.53685
G1 X90.585 Y95.828 E18.60194
G1 X91.509 Y94.712 E18.6694
G1 X91.858 Y94.302 E18.69447
G1 X92.519 Y93.594 E18.73958
G1 X93.486 Y92.652 E18.80244
G1 X94.552 Y91.652 E18.8705
G1 X94.961 Y91.278 E18.8963
G1 X95.71 Y90.654 E18.9417
G1 X96.816 Y89.818 E19.00625
G1 X97.95 Y88.996 E19.07147
G1 X98.437 Y88.652 E19.09923
G1 X99.253 Y88.13 E19.14434
G1 X100.418 Y87.46 E19.20692
G1 X101.665 Y86.776 E19.27315
G1 X102.186 Y86.498 E19.30064
G1 X103.082 Y86.073 E19.34682
G1 X104.332 Y85.551 E19.4099
G1 X105.677 Y85.02 E19.47723
G1 X106.211 Y84.817 E19.50383
G1 X107.139 Y84.512 E19.54932
G1 X108.421 Y84.158 E19.61125
G1 X109.776 Y83.811 E19.67638
G1 X110.393 Y83.661 E19.70594
G1 X111.361 Y83.473 E19.75186
G1 X112.68 Y83.282 E19.81392
G1 X114.06 Y83.108 E19.87869
G1 X114.705 Y83.036 E19.90891
G1 X115.659 Y82.973 E19.95343
G1 X117.025 Y82.947 E20.01704
G1 X118.446 Y82.948 E20.08321
G1 X119.026 Y82.956 E20.11022
G0 F6000 X119.032 Y82.556
G1 F1200 X120.039 Y82.616 E20.15719
G1 X121.425 Y82.765 E20.2221
G1 X122.823 Y82.943 E20.28773
G1 X123.412 Y83.026 E20.31542
G1 X124.397 Y83.211 E20.36209
G1 X125.726 Y83.526 E20.42569
G1 X127.128 Y83.887 E20.4931
G1 X127.687 Y84.039 E20.52008
G1 X128.637 Y84.345 E20.56655
G1 X129.886 Y84.812 E20.62864
G1 X131.326 Y85.383 E20.70077
G1 X131.797 Y85.578 E20.72451
G1 X132.683 Y85.991 E20.77003
G1 X133.935 Y86.649 E20.83589
G1 X135.167 Y87.327 E20.90137
G1 X135.686 Y87.622 E20.92917
G1 X136.531 Y88.155 E20.97569
G1 X137.665 Y88.946 E21.04007
G1 X138.805 Y89.777 E21.10576
G1 X139.295 Y90.144 E21.13426
G1 X140.067 Y90.779 E21.18081
G1 X141.051 Y91.668 E21.24256
G1 X142.164 Y92.714 E21.31368
G1 X142.551 Y93.089 E21.33877
G1 X143.224 Y93.802 E21.38443
G1 X144.127 Y94.852 E21.44891
G1 X145.022 Y95.936 E21.51437
G1 X145.403 Y96.41 E21.54269
G1 X145.993 Y97.216 E21.5892
G1 X146.778 Y98.403 E21.65546
G1 X147.516 Y99.57 E21.71976
G1 X147.836 Y100.091 E21.74823
G1 X148.314 Y100.953 E21.79412
G1 X148.906 Y102.151 E21.85635
G1 X149.545 Y103.51 E21.92627
G1 X149.776 Y104.02 E21.95235
G1 X150.146 Y104.946 E21.99878
G1 X150.587 Y106.221 E22.0616
G1 X151.04 Y107.619 E22.13003
G1 X151.212 Y108.177 E22.15722
G1 X151.461 Y109.137 E22.2034
G1 X151.743 Y110.476 E22.26711
G1 X152.019 Y111.923 E22.33571
G1 X152.112 Y112.45 E22.36063
G1 X152.241 Y113.451 E22.40762
G1 X152.355 Y114.853 E22.47312
G1 X152.441 Y116.238 E22.53774
G1 X152.471 Y116.841 E22.56585
G1 X152.475 Y117.86 E22.6133
G1 X152.417 Y119.167 E22.67422
G1 X152.321 Y120.671 E22.74439
G1 X152.276 Y121.246 E22.77125
G1 X152.155 Y122.227 E22.81728
G1 X151.927 Y123.558 E22.88015
G1 X151.651 Y124.999 E22.94847
G1 X151.538 Y125.552 E22.97476
G1 X151.29 Y126.536 E23.02201
G1 X150.908 Y127.789 E23.083
G1 X150.46 Y129.166 E23.15043
G1 X150.267 Y129.737 E23.1785
G1 X149.888 Y130.704 E23.22686
G1 X149.327 Y131.956 E23.29074
G1 X148.716 Y133.251 E23.35742
G1 X148.462 Y133.772 E23.38441
G1 X147.98 Y134.656 E23.43129
G1 X147.294 Y135.783 E23.49273
G1 X146.496 Y137.039 E23.56202
G1 X146.176 Y137.527 E23.58919
G1 X145.597 Y138.329 E23.63525
G1 X144.727 Y139.422 E23.7003
G1 X143.795 Y140.547 E23.76832
G1 X143.446 Y140.957 E23.7934
G1 X142.76 Y141.692 E23.84021
G1 X141.792 Y142.636 E23.90317
G1 X140.718 Y143.643 E23.97172
G1 X140.309 Y144.017 E23.99753
G1 X139.531 Y144.665 E24.04468
G1 X138.419 Y145.505 E24.10957
G1 X137.28 Y146.331 E24.17509
G1 X136.793 Y146.675 E24.20285
G1 X135.944 Y147.218 E24.24978
G1 X134.786 Y147.883 E24.31196
G1 X133.523 Y148.577 E24.37906
G1 X133.002 Y148.855 E24.40656
G1 X132.072 Y149.296 E24.45448
G1 X130.815 Y149.821 E24.51792
G1 X129.465 Y150.354 E24.5855
G1 X128.931 Y150.557 E24.6121
G1 X127.969 Y150.873 E24.65925
G1 X126.678 Y151.229 E24.72161
G1 X125.319 Y151.578 E24.78694
G1 X124.702 Y151.728 E24.81651
G1 X123.697 Y151.923 E24.86418
G1 X122.37 Y152.115 E24.92661
G1 X120.984 Y152.289 E24.99166
G1 X120.339 Y152.361 E25.02188
G1 X119.35 Y152.427 E25.06803
G1 X117.975 Y152.453 E25.13207
G1 X116.548 Y152.452 E25.19852
G1 X115.968 Y152.444 E25.22553
G1 X114.961 Y152.384 E25.2725
G1 X113.575 Y152.235 E25.33741
G1 X112.177 Y152.057 E25.40303
G1 X111.588 Y151.974 E25.43073
G1 X110.603 Y151.789 E25.4774
G1 X109.274 Y151.474 E25.541
G1 X107.872 Y151.113 E25.60841
